tools/download-figma-icons/icons/outlined-medium/paperplane.svg

<svg width="24" height="24" viewBox="0 0 24 24" fill="none" xmlns="http://www.w3.org/2000/svg">
<path fill-rule="evenodd" clip-rule="evenodd" d="M18.8026 17.8965L10.0666 14.7248L21.9428 4.34252L18.8026 17.8965ZM9.36607 19.836V16.0673L12.4561 17.1885L9.36607 19.836ZM19.0088 4.91476L8.45555 14.1398L2.7623 12.0728L19.0088 4.91476ZM23.9423 2.26727C23.9438 2.18552 23.9363 2.10452 23.9116 2.02727C23.9108 2.02277 23.9108 2.01752 23.9093 2.01227C23.8808 1.92902 23.8343 1.85402 23.7788 1.78427C23.7713 1.77527 23.7698 1.76477 23.7623 1.75577C23.7533 1.74602 23.7406 1.74152 23.7308 1.73177C23.7121 1.71227 23.6971 1.68977 23.6761 1.67177C23.6393 1.64102 23.5981 1.62077 23.5568 1.59902C23.5411 1.59002 23.5283 1.57802 23.5118 1.57052C23.4353 1.53602 23.3536 1.51502 23.2703 1.50677C23.2463 1.50527 23.2238 1.50677 23.1983 1.50677C23.1361 1.50677 23.0738 1.51427 23.0123 1.53077C22.9861 1.53752 22.9613 1.54202 22.9358 1.55252C22.9223 1.55702 22.9088 1.55777 22.8953 1.56377L0.447061 11.454C0.166561 11.5778 -0.00968917 11.859 0.000810832 12.165C0.0105608 12.4718 0.205561 12.741 0.494311 12.846L7.86606 15.522V21.4665C7.86606 21.759 8.03706 22.0253 8.30256 22.1475C8.40306 22.1933 8.50956 22.2165 8.61606 22.2165C8.79156 22.2165 8.96556 22.155 9.10356 22.0365L14.0753 17.7765L19.0868 19.596C19.1693 19.626 19.2556 19.6403 19.3426 19.6403C19.4663 19.6403 19.5893 19.6095 19.7003 19.5495C19.8886 19.4468 20.0243 19.269 20.0731 19.0598L23.9288 2.41877C23.9348 2.39252 23.9326 2.36627 23.9363 2.33927C23.9393 2.31527 23.9416 2.29202 23.9423 2.26727Z" fill="black"/>
</svg>

<svg xmlns="http://www.w3.org/2000/svg" width="24" height="24" fill="none" viewBox="0 0 24 24"><path fill="currentColor" fill-rule="evenodd" d="m18.803 17.897-8.736-3.172L21.943 4.343zm-9.437 1.939v-3.769l3.09 1.122zM19.01 4.915 8.456 14.14l-5.694-2.067zm4.933-2.648a.7.7 0 0 0-.03-.24l-.003-.015a.8.8 0 0 0-.13-.228c-.008-.009-.01-.02-.017-.028-.009-.01-.021-.014-.031-.024-.019-.02-.034-.042-.055-.06-.037-.031-.078-.051-.12-.073-.015-.009-.028-.021-.044-.028a.8.8 0 0 0-.242-.064h-.072a.7.7 0 0 0-.186.024c-.026.007-.05.011-.076.022l-.04.01L.446 11.455a.75.75 0 0 0 .047 1.392l7.372 2.676v5.945a.75.75 0 0 0 1.238.57l4.971-4.26 5.012 1.819a.75.75 0 0 0 .613-.047.75.75 0 0 0 .373-.49L23.93 2.42c.006-.026.004-.053.007-.08z" clip-rule="evenodd"/></svg>
